dist/svg/static/polls-large.svg

<?xml version="1.0" encoding="UTF-8" standalone="no"?>
<svg width="48px" height="48px" viewBox="0 0 48 48" version="1.1" xmlns="http://www.w3.org/2000/svg" xmlns:xlink="http://www.w3.org/1999/xlink">
    <!-- Generator: sketchtool 46.2 (44496) - http://www.bohemiancoding.com/sketch -->
    <title>polls-large</title>
    <desc>Created with sketchtool.</desc>
    <defs></defs>
    <g id="icons-published" stroke="none" stroke-width="1" fill="none" fill-rule="evenodd">
        <g id="briefing" transform="translate(-3456.000000, -1306.000000)"></g>
        <g id="polls-large" stroke="#000000">
            <path d="M5,44.5 L43,44.5 L5,44.5 Z M33.5,12.5 L42.5,12.5 L42.5,39.5 L33.5,39.5 L33.5,12.5 Z M19.5,3.5 L28.5,3.5 L28.5,39.5 L19.5,39.5 L19.5,3.5 Z M5.5,19.5 L14.5,19.5 L14.5,39.5 L5.5,39.5 L5.5,19.5 Z" id="Shape"></path>
        </g>
    </g>
</svg>

<svg xmlns="http://www.w3.org/2000/svg" width="48" height="48" viewBox="0 0 48 48"><path d="M5 44.5h38m-9.5-32h9v27h-9zm-14-9h9v36h-9zm-14 16h9v20h-9z" fill="none" stroke="currentColor" stroke-miterlimit="10"/></svg>
